exports/diphtheria-tetanus-pertussis-dtp3-immunization-global_v3_850x600.svg

<svg xmlns="http://www.w3.org/2000/svg" version="1.1" style="background-color:#fff;-webkit-font-smoothing:antialiased" width="850" height="600" font-family="'Helvetica Neue',Helvetica,Arial,sans-serif" font-size="18" text-rendering="optimizeLegibility"><g class="ChartTab"><g class="HeaderView"><g opacity=".8" transform="matrix(.27 0 0 .27 778 15)"><a xmlns:xlink="http://www.w3.org/1999/xlink" xlink:href="https://ourworldindata.org" target="_blank"><g><path fill="#1B2543" d="M0 0h211.2v130.1H0z"/><path fill="#E63912" d="M0 112.2h211.2v17.9H0z"/><g><path fill="none" d="M1.2 12.3h210.2v99.2H1.2z"/><path fill="#FFF" d="M37.8 32.2c0 12.7-7.7 19.4-17.1 19.4-9.7 0-16.6-7.5-16.6-18.7 0-11.7 7.3-19.3 17.1-19.3 10.1.1 16.6 7.7 16.6 18.6zm-28.6.6c0 7.9 4.3 14.9 11.8 14.9 7.5 0 11.8-6.9 11.8-15.3 0-7.3-3.8-14.9-11.8-14.9-7.9 0-11.8 7.3-11.8 15.3zM62.7 43.8c0 2.7.1 5.1.2 7.2h-4.3l-.3-4.3h-.1c-1.3 2.1-4 4.9-8.8 4.9-4.2 0-9.1-2.3-9.1-11.6V24.6h4.8v14.6c0 5 1.5 8.4 5.9 8.4 3.2 0 5.5-2.2 6.3-4.4.3-.7.4-1.6.4-2.5V24.6h4.8v19.2zM67.3 32.8c0-3.1-.1-5.8-.2-8.2h4.2l.2 5.2h.2c1.2-3.5 4.1-5.8 7.3-5.8.5 0 .9.1 1.4.2v4.5c-.5-.1-1-.2-1.6-.2-3.4 0-5.8 2.6-6.5 6.2-.1.7-.2 1.4-.2 2.2V51h-4.8V32.8zM95.4 51L86 14.2h5l4.4 18.6c1.1 4.6 2.1 9.2 2.7 12.7h.1c.6-3.7 1.8-8 3-12.8l4.9-18.5h5l4.5 18.7c1 4.4 2 8.7 2.6 12.6h.1c.8-4 1.8-8.1 3-12.7l4.9-18.5h4.9L120.6 51h-5L111 31.9c-1.1-4.7-1.9-8.3-2.4-12h-.1c-.7 3.7-1.5 7.3-2.8 12L100.4 51h-5zM154.9 37.6c0 9.8-6.8 14-13.2 14-7.2 0-12.7-5.2-12.7-13.6 0-8.8 5.8-14 13.1-14 7.7 0 12.8 5.5 12.8 13.6zm-21 .3c0 5.8 3.3 10.1 8 10.1 4.6 0 8-4.3 8-10.3 0-4.5-2.2-10.1-7.9-10.1s-8.1 5.2-8.1 10.3zM158.2 32.8c0-3.1-.1-5.8-.2-8.2h4.2l.2 5.2h.2c1.2-3.5 4.1-5.8 7.3-5.8.5 0 .9.1 1.4.2v4.5c-.5-.1-1-.2-1.6-.2-3.4 0-5.8 2.6-6.5 6.2-.1.7-.2 1.4-.2 2.2V51h-4.8V32.8zM173.5 12.3h4.8V51h-4.8V12.3zM206.5 12.3v31.9c0 2.3.1 5 .2 6.8h-4.3l-.2-4.6h-.2c-1.5 2.9-4.7 5.2-9 5.2-6.4 0-11.3-5.4-11.3-13.4-.1-8.8 5.4-14.2 11.9-14.2 4 0 6.8 1.9 8 4h.1V12.3h4.8zm-4.8 23.1c0-.6-.1-1.4-.2-2a7 7 0 00-6.9-5.6c-5 0-7.9 4.4-7.9 10.2 0 5.3 2.6 9.8 7.8 9.8 3.2 0 6.2-2.1 7.1-5.7.2-.7.2-1.3.2-2.1v-4.6zM42.8 64c.1 1.6-1.1 2.9-3.1 2.9-1.7 0-2.9-1.3-2.9-2.9 0-1.7 1.3-3 3-3 1.9 0 3 1.3 3 3zm-5.4 33.8V71.4h4.8v26.4h-4.8zM47.5 78.6c0-2.7-.1-5-.2-7.1h4.3l.3 4.4h.1c1.3-2.5 4.4-5 8.8-5 3.7 0 9.4 2.2 9.4 11.2v15.8h-4.8V82.6c0-4.3-1.6-7.8-6.1-7.8-3.2 0-5.6 2.2-6.5 4.9-.2.6-.3 1.4-.3 2.2v15.9h-4.8V78.6zM84 61.6c2.9-.4 6.3-.8 10.1-.8 6.8 0 11.7 1.6 14.9 4.6 3.3 3 5.2 7.3 5.2 13.2 0 6-1.9 10.9-5.3 14.3-3.4 3.4-9.1 5.3-16.3 5.3-3.4 0-6.2-.2-8.6-.4V61.6zm4.8 32.5c1.2.2 3 .3 4.8.3 10.2 0 15.7-5.7 15.7-15.6.1-8.7-4.9-14.2-14.9-14.2-2.5 0-4.3.2-5.6.5v29zM132.1 97.8l-.4-3.3h-.2a9.79 9.79 0 01-8.1 3.9c-5.4 0-8.1-3.8-8.1-7.6 0-6.4 5.7-9.9 15.9-9.8v-.5c0-2.2-.6-6.1-6-6.1-2.5 0-5 .8-6.9 2l-1.1-3.2c2.2-1.4 5.4-2.3 8.7-2.3 8.1 0 10.1 5.5 10.1 10.8v9.9c0 2.3.1 4.5.4 6.3h-4.3zm-.7-13.4c-5.3-.1-11.2.8-11.2 5.9 0 3.1 2.1 4.6 4.5 4.6 3.4 0 5.6-2.2 6.4-4.4.2-.5.3-1 .3-1.5v-4.6zM146.6 63.9v7.6h6.9v3.7h-6.9v14.2c0 3.3.9 5.1 3.6 5.1 1.3 0 2.2-.2 2.8-.3l.2 3.6c-.9.4-2.4.7-4.3.7-2.2 0-4-.7-5.2-2-1.4-1.4-1.9-3.8-1.9-6.9V75.1h-4.1v-3.7h4.1v-6.3l4.8-1.2zM171.4 97.8l-.4-3.3h-.2a9.79 9.79 0 01-8.1 3.9c-5.4 0-8.1-3.8-8.1-7.6 0-6.4 5.7-9.9 15.9-9.8v-.5c0-2.2-.6-6.1-6-6.1-2.5 0-5 .8-6.9 2l-1.1-3.2c2.2-1.4 5.4-2.3 8.7-2.3 8.1 0 10.1 5.5 10.1 10.8v9.9c0 2.3.1 4.5.4 6.3h-4.3zm-.7-13.4c-5.3-.1-11.2.8-11.2 5.9 0 3.1 2.1 4.6 4.5 4.6 3.4 0 5.6-2.2 6.4-4.4.2-.5.3-1 .3-1.5v-4.6z"/></g></g></a></g><a target="_blank"><text font-size="21.6" x="15" y="32.3" fill="#555"><tspan x="15" y="32.28">tetanus global vaccination coverage (all ages) vs. tetanus cases (WHO,</tspan><tspan x="15" y="53.88">confirmed)</tspan></text></a></g><g class="LineChart"><defs><clipPath id="a"><path d="M87.6 0h830v923.6h-830z"/></clipPath></defs><g class="AxisBoxView"><g class="HorizontalAxis" fill="#666" text-anchor="middle" font-size="16.2"><text x="97.6" y="541.9">1980</text><text x="167.4" y="541.9">1985</text><text x="237.2" y="541.9">1990</text><text x="307" y="541.9">1995</text><text x="376.8" y="541.9">2000</text><text x="446.6" y="541.9">2005</text><text x="516.4" y="541.9">2010</text><text x="586.2" y="541.9">2015</text></g><g class="VerticalAxis" fill="#666" dominant-baseline="middle" text-anchor="end" font-size="16.2"><text x="92.6" y="445.7">100,000</text><text x="92.6" y="369.5">1 million</text><text x="92.6" y="293.4">10 million</text><text x="92.6" y="217.2">100 million</text><text x="92.6" y="141.1">1 billion</text></g><g class="AxisGridLines" stroke="#ddd" stroke-dasharray="3,2"><path d="M97.6 445.7h488.56M97.6 369.5h488.56M97.6 293.4h488.56M97.6 217.2h488.56M97.6 141.1h488.56"/></g></g><g clip-path="url(#a)"><g class="HeightedLegend clickable"><g class="legendMark"><text font-size="13.5" x="591.2" y="84.1" fill="#34983f"><tspan x="591.16" y="84.15">Vaccinated</tspan></text></g><g class="legendMark"><text font-size="13.5" x="591.2" y="144.2" fill="#ca2628"><tspan x="591.16" y="144.15">Not vaccinated</tspan></text></g><g class="legendMark"><text font-size="13.5" x="591.2" y="517.5" fill="#3360a9"><tspan x="591.16" y="517.45">Number of confirmed tetanus cases</tspan><tspan x="591.16" y="532.3">(WHO 2017)</tspan></text></g></g><g class="Lines"><g class="key-World_0"><path stroke="#ca2628" stroke-linecap="round" d="M98 100h14l14 1 14 5 13 3 14 2 14 2 14 2 14 6 14 3 14 9 14-6 14-2 14-1 14 3h14l14-2 14-2 14 1h14l14-1 14 1h14l14 2 14 1 14 2 14 1 14 2 13 3 14 3 14 2 14-1h28l14-1 14 2" fill="none" stroke-width="1.5"/><g fill="#ca2628"><circle cx="98" cy="100" r="2"/><circle cx="112" cy="100" r="2"/><circle cx="126" cy="101" r="2"/><circle cx="140" cy="106" r="2"/><circle cx="153" cy="109" r="2"/><circle cx="167" cy="111" r="2"/><circle cx="181" cy="113" r="2"/><circle cx="195" cy="115" r="2"/><circle cx="209" cy="121" r="2"/><circle cx="223" cy="124" r="2"/><circle cx="237" cy="133" r="2"/><circle cx="251" cy="127" r="2"/><circle cx="265" cy="125" r="2"/><circle cx="279" cy="124" r="2"/><circle cx="293" cy="127" r="2"/><circle cx="307" cy="127" r="2"/><circle cx="321" cy="125" r="2"/><circle cx="335" cy="123" r="2"/><circle cx="349" cy="124" r="2"/><circle cx="363" cy="124" r="2"/><circle cx="377" cy="123" r="2"/><circle cx="391" cy="124" r="2"/><circle cx="405" cy="124" r="2"/><circle cx="419" cy="126" r="2"/><circle cx="433" cy="127" r="2"/><circle cx="447" cy="129" r="2"/><circle cx="461" cy="130" r="2"/><circle cx="475" cy="132" r="2"/><circle cx="488" cy="135" r="2"/><circle cx="502" cy="138" r="2"/><circle cx="516" cy="140" r="2"/><circle cx="530" cy="139" r="2"/><circle cx="544" cy="139" r="2"/><circle cx="558" cy="139" r="2"/><circle cx="572" cy="138" r="2"/><circle cx="586" cy="140" r="2"/></g></g><g class="key-World_1"><path stroke="#34983f" stroke-linecap="round" d="M98 143l14-5 14-3 14-14 13-5 14-4 14-2 14-3 14-5 14-3 14-4 14 1 14 1 14-1 14-2h42l14-1 14-1h14l14-1h14l14-2h14l14-2h14l14-1 13-2 14-1 14-1h28l14-1h14l14-1" fill="none" stroke-width="1.5"/><g fill="#34983f"><circle cx="98" cy="143" r="2"/><circle cx="112" cy="138" r="2"/><circle cx="126" cy="135" r="2"/><circle cx="140" cy="121" r="2"/><circle cx="153" cy="116" r="2"/><circle cx="167" cy="112" r="2"/><circle cx="181" cy="110" r="2"/><circle cx="195" cy="107" r="2"/><circle cx="209" cy="102" r="2"/><circle cx="223" cy="99" r="2"/><circle cx="237" cy="95" r="2"/><circle cx="251" cy="96" r="2"/><circle cx="265" cy="97" r="2"/><circle cx="279" cy="96" r="2"/><circle cx="293" cy="94" r="2"/><circle cx="307" cy="94" r="2"/><circle cx="321" cy="94" r="2"/><circle cx="335" cy="94" r="2"/><circle cx="349" cy="93" r="2"/><circle cx="363" cy="92" r="2"/><circle cx="377" cy="92" r="2"/><circle cx="391" cy="91" r="2"/><circle cx="405" cy="91" r="2"/><circle cx="419" cy="89" r="2"/><circle cx="433" cy="89" r="2"/><circle cx="447" cy="87" r="2"/><circle cx="461" cy="87" r="2"/><circle cx="475" cy="86" r="2"/><circle cx="488" cy="84" r="2"/><circle cx="502" cy="83" r="2"/><circle cx="516" cy="82" r="2"/><circle cx="530" cy="82" r="2"/><circle cx="544" cy="82" r="2"/><circle cx="558" cy="81" r="2"/><circle cx="572" cy="81" r="2"/><circle cx="586" cy="80" r="2"/></g></g><g class="key-World_2"><path stroke="#3360a9" stroke-linecap="round" d="M98 441l14 3 14-3 14 5 13 3 14-5 14 7 14 4 14 1 14-2 14 6 14 11 14 5 14-2 14-4 14 43 14 1 14-20 14 4 14 8 14-13 14 5 14-14 14 26 14 1 14-4 14 1 14-10 13 9 14 9 14 2 14-4 14 6 14-8 14 2 14 7" fill="none" stroke-width="1.5"/><g fill="#3360a9"><circle cx="98" cy="441" r="2"/><circle cx="112" cy="444" r="2"/><circle cx="126" cy="441" r="2"/><circle cx="140" cy="446" r="2"/><circle cx="153" cy="449" r="2"/><circle cx="167" cy="444" r="2"/><circle cx="181" cy="451" r="2"/><circle cx="195" cy="455" r="2"/><circle cx="209" cy="456" r="2"/><circle cx="223" cy="454" r="2"/><circle cx="237" cy="460" r="2"/><circle cx="251" cy="471" r="2"/><circle cx="265" cy="476" r="2"/><circle cx="279" cy="474" r="2"/><circle cx="293" cy="470" r="2"/><circle cx="307" cy="513" r="2"/><circle cx="321" cy="514" r="2"/><circle cx="335" cy="494" r="2"/><circle cx="349" cy="498" r="2"/><circle cx="363" cy="506" r="2"/><circle cx="377" cy="493" r="2"/><circle cx="391" cy="498" r="2"/><circle cx="405" cy="484" r="2"/><circle cx="419" cy="510" r="2"/><circle cx="433" cy="511" r="2"/><circle cx="447" cy="507" r="2"/><circle cx="461" cy="508" r="2"/><circle cx="475" cy="498" r="2"/><circle cx="488" cy="507" r="2"/><circle cx="502" cy="516" r="2"/><circle cx="516" cy="518" r="2"/><circle cx="530" cy="514" r="2"/><circle cx="544" cy="520" r="2"/><circle cx="558" cy="512" r="2"/><circle cx="572" cy="514" r="2"/><circle cx="586" cy="521" r="2"/></g></g></g></g></g><g class="SourcesFooter" fill="#777"><g class="clickable" fill="#777"><text font-size="12.6" x="15" y="567"><tspan x="15" y="566.98">Source: DTP3 Coverage global - OWID based on WHO (2016), Global Health Observatory Data Repository (2017)</tspan></text></g><text font-size="12.6" x="15" y="582.5"><tspan x="15" y="582.48"><a target="_blank" href="https://ourworldindata.org/vaccination/" fill="#777">OurWorldInData.org/vaccination/</a> • <a class="cclogo" href="http://creativecommons.org/licenses/by-sa/4.0/deed.en_US" target="_blank" fill="#777">CC BY-SA</a></tspan></text></g></g></svg>

<svg xmlns="http://www.w3.org/2000/svg" version="1.1" style="font-family: 'Helvetica Neue', Helvetica, Arial, sans-serif; font-size: 18px; background-color: white; text-rendering: optimizeLegibility; -webkit-font-smoothing: antialiased;" width="850" height="600"><g class="ChartTab"><g class="HeaderView"><g opacity="0.8" transform="translate(778, 15) scale(0.27)"><a xmlns:xlink="http://www.w3.org/1999/xlink" xlink:href="https://ourworldindata.org" target="_blank"><g><rect x="0" y="0" fill="#1B2543" width="211.2" height="130.1"/><rect x="0" y="112.2" fill="#E63912" width="211.2" height="17.9"/><g><rect x="1.2" y="12.3" fill="none" width="210.2" height="99.2"/><path fill="#FFFFFF" d="M37.8,32.2c0,12.7-7.7,19.4-17.1,19.4c-9.7,0-16.6-7.5-16.6-18.7c0-11.7,7.3-19.3,17.1-19.3 C31.3,13.7,37.8,21.3,37.8,32.2z M9.2,32.8c0,7.9,4.3,14.9,11.8,14.9c7.5,0,11.8-6.9,11.8-15.3c0-7.3-3.8-14.9-11.8-14.9 C13.1,17.5,9.2,24.8,9.2,32.8z"/><path fill="#FFFFFF" d="M62.7,43.8c0,2.7,0.1,5.1,0.2,7.2h-4.3l-0.3-4.3h-0.1c-1.3,2.1-4,4.9-8.8,4.9c-4.2,0-9.1-2.3-9.1-11.6 V24.6h4.8v14.6c0,5,1.5,8.4,5.9,8.4c3.2,0,5.5-2.2,6.3-4.4c0.3-0.7,0.4-1.6,0.4-2.5V24.6h4.8V43.8z"/><path fill="#FFFFFF" d="M67.3,32.8c0-3.1-0.1-5.8-0.2-8.2h4.2l0.2,5.2h0.2c1.2-3.5,4.1-5.8,7.3-5.8c0.5,0,0.9,0.1,1.4,0.2v4.5 c-0.5-0.1-1-0.2-1.6-0.2c-3.4,0-5.8,2.6-6.5,6.2c-0.1,0.7-0.2,1.4-0.2,2.2V51h-4.8V32.8z"/><path fill="#FFFFFF" d="M95.4,51l-9.4-36.8h5l4.4,18.6c1.1,4.6,2.1,9.2,2.7,12.7h0.1c0.6-3.7,1.8-8,3-12.8l4.9-18.5h5l4.5,18.7 c1,4.4,2,8.7,2.6,12.6h0.1c0.8-4,1.8-8.1,3-12.7l4.9-18.5h4.9L120.6,51h-5L111,31.9c-1.1-4.7-1.9-8.3-2.4-12h-0.1 c-0.7,3.7-1.5,7.3-2.8,12L100.4,51H95.4z"/><path fill="#FFFFFF" d="M154.9,37.6c0,9.8-6.8,14-13.2,14c-7.2,0-12.7-5.2-12.7-13.6c0-8.8,5.8-14,13.1-14 C149.8,24,154.9,29.5,154.9,37.6z M133.9,37.9c0,5.8,3.3,10.1,8,10.1c4.6,0,8-4.3,8-10.3c0-4.5-2.2-10.1-7.9-10.1 C136.3,27.6,133.9,32.8,133.9,37.9z"/><path fill="#FFFFFF" d="M158.2,32.8c0-3.1-0.1-5.8-0.2-8.2h4.2l0.2,5.2h0.2c1.2-3.5,4.1-5.8,7.3-5.8c0.5,0,0.9,0.1,1.4,0.2v4.5 c-0.5-0.1-1-0.2-1.6-0.2c-3.4,0-5.8,2.6-6.5,6.2c-0.1,0.7-0.2,1.4-0.2,2.2V51h-4.8V32.8z"/><path fill="#FFFFFF" d="M173.5,12.3h4.8V51h-4.8V12.3z"/><path fill="#FFFFFF" d="M206.5,12.3v31.9c0,2.3,0.1,5,0.2,6.8h-4.3l-0.2-4.6H202c-1.5,2.9-4.7,5.2-9,5.2 c-6.4,0-11.3-5.4-11.3-13.4c-0.1-8.8,5.4-14.2,11.9-14.2c4,0,6.8,1.9,8,4h0.1V12.3H206.5z M201.7,35.4c0-0.6-0.1-1.4-0.2-2 c-0.7-3.1-3.3-5.6-6.9-5.6c-5,0-7.9,4.4-7.9,10.2c0,5.3,2.6,9.8,7.8,9.8c3.2,0,6.2-2.1,7.1-5.7c0.2-0.7,0.2-1.3,0.2-2.1V35.4z"/><path fill="#FFFFFF" d="M42.8,64c0.1,1.6-1.1,2.9-3.1,2.9c-1.7,0-2.9-1.3-2.9-2.9c0-1.7,1.3-3,3-3C41.7,61,42.8,62.3,42.8,64z M37.4,97.8V71.4h4.8v26.4H37.4z"/><path fill="#FFFFFF" d="M47.5,78.6c0-2.7-0.1-5-0.2-7.1h4.3l0.3,4.4h0.1c1.3-2.5,4.4-5,8.8-5c3.7,0,9.4,2.2,9.4,11.2v15.8h-4.8 V82.6c0-4.3-1.6-7.8-6.1-7.8c-3.2,0-5.6,2.2-6.5,4.9c-0.2,0.6-0.3,1.4-0.3,2.2v15.9h-4.8V78.6z"/><path fill="#FFFFFF" d="M84,61.6c2.9-0.4,6.3-0.8,10.1-0.8c6.8,0,11.7,1.6,14.9,4.6c3.3,3,5.2,7.3,5.2,13.2c0,6-1.9,10.9-5.3,14.3 c-3.4,3.4-9.1,5.3-16.3,5.3c-3.4,0-6.2-0.2-8.6-0.4V61.6z M88.8,94.1c1.2,0.2,3,0.3,4.8,0.3c10.2,0,15.7-5.7,15.7-15.6 c0.1-8.7-4.9-14.2-14.9-14.2c-2.5,0-4.3,0.2-5.6,0.5V94.1z"/><path fill="#FFFFFF" d="M132.1,97.8l-0.4-3.3h-0.2c-1.5,2.1-4.3,3.9-8.1,3.9c-5.4,0-8.1-3.8-8.1-7.6c0-6.4,5.7-9.9,15.9-9.8v-0.5 c0-2.2-0.6-6.1-6-6.1c-2.5,0-5,0.8-6.9,2l-1.1-3.2c2.2-1.4,5.4-2.3,8.7-2.3c8.1,0,10.1,5.5,10.1,10.8v9.9c0,2.3,0.1,4.5,0.4,6.3 H132.1z M131.4,84.4c-5.3-0.1-11.2,0.8-11.2,5.9c0,3.1,2.1,4.6,4.5,4.6c3.4,0,5.6-2.2,6.4-4.4c0.2-0.5,0.3-1,0.3-1.5V84.4z"/><path fill="#FFFFFF" d="M146.6,63.9v7.6h6.9v3.7h-6.9v14.2c0,3.3,0.9,5.1,3.6,5.1c1.3,0,2.2-0.2,2.8-0.3l0.2,3.6 c-0.9,0.4-2.4,0.7-4.3,0.7c-2.2,0-4-0.7-5.2-2c-1.4-1.4-1.9-3.8-1.9-6.9V75.1h-4.1v-3.7h4.1v-6.3L146.6,63.9z"/><path fill="#FFFFFF" d="M171.4,97.8l-0.4-3.3h-0.2c-1.5,2.1-4.3,3.9-8.1,3.9c-5.4,0-8.1-3.8-8.1-7.6c0-6.4,5.7-9.9,15.9-9.8v-0.5 c0-2.2-0.6-6.1-6-6.1c-2.5,0-5,0.8-6.9,2l-1.1-3.2c2.2-1.4,5.4-2.3,8.7-2.3c8.1,0,10.1,5.5,10.1,10.8v9.9c0,2.3,0.1,4.5,0.4,6.3 H171.4z M170.7,84.4c-5.3-0.1-11.2,0.8-11.2,5.9c0,3.1,2.1,4.6,4.5,4.6c3.4,0,5.6-2.2,6.4-4.4c0.2-0.5,0.3-1,0.3-1.5V84.4z"/></g></g></a></g><a target="_blank"><text font-size="21.60" x="15.0" y="32.3" fill="#555"><tspan x="15" y="32.279999999999994">tetanus global vaccination coverage (all ages) vs. tetanus cases (WHO,</tspan><tspan x="15" y="53.87999999999999">confirmed)</tspan></text></a></g><g class="LineChart"><defs><clipPath id="boundsClip-1"><rect x="87.598" y="0" width="830" height="923.5999999999999"></rect></clipPath></defs><g class="AxisBoxView"><g class="HorizontalAxis"><text x="97.6" y="541.9" fill="#666" text-anchor="middle" font-size="16.2">1980</text><text x="167.4" y="541.9" fill="#666" text-anchor="middle" font-size="16.2">1985</text><text x="237.2" y="541.9" fill="#666" text-anchor="middle" font-size="16.2">1990</text><text x="307" y="541.9" fill="#666" text-anchor="middle" font-size="16.2">1995</text><text x="376.8" y="541.9" fill="#666" text-anchor="middle" font-size="16.2">2000</text><text x="446.6" y="541.9" fill="#666" text-anchor="middle" font-size="16.2">2005</text><text x="516.4" y="541.9" fill="#666" text-anchor="middle" font-size="16.2">2010</text><text x="586.2" y="541.9" fill="#666" text-anchor="middle" font-size="16.2">2015</text></g><g class="VerticalAxis"><text x="92.60" y="445.7" fill="#666" dominant-baseline="middle" text-anchor="end" font-size="16.2">100,000</text><text x="92.60" y="369.5" fill="#666" dominant-baseline="middle" text-anchor="end" font-size="16.2">1 million</text><text x="92.60" y="293.4" fill="#666" dominant-baseline="middle" text-anchor="end" font-size="16.2">10 million</text><text x="92.60" y="217.2" fill="#666" dominant-baseline="middle" text-anchor="end" font-size="16.2">100 million</text><text x="92.60" y="141.1" fill="#666" dominant-baseline="middle" text-anchor="end" font-size="16.2">1 billion</text></g><g class="AxisGridLines"><line x1="97.60" y1="445.7" x2="586.16" y2="445.7" stroke="#ddd" stroke-dasharray="3,2"></line><line x1="97.60" y1="369.5" x2="586.16" y2="369.5" stroke="#ddd" stroke-dasharray="3,2"></line><line x1="97.60" y1="293.4" x2="586.16" y2="293.4" stroke="#ddd" stroke-dasharray="3,2"></line><line x1="97.60" y1="217.2" x2="586.16" y2="217.2" stroke="#ddd" stroke-dasharray="3,2"></line><line x1="97.60" y1="141.1" x2="586.16" y2="141.1" stroke="#ddd" stroke-dasharray="3,2"></line></g></g><g clip-path="url(#boundsClip-1)"><g class="HeightedLegend clickable"><g class="legendMark"><rect x="586.16" y="73.35" width="102.095" height="13.5" fill="#fff" opacity="0"></rect><text font-size="13.50" x="591.2" y="84.1" fill="#34983f"><tspan x="591.16" y="84.14999999999999">Vaccinated</tspan></text></g><g class="legendMark"><rect x="586.16" y="133.35" width="124.64" height="13.5" fill="#fff" opacity="0"></rect><text font-size="13.50" x="591.2" y="144.2" fill="#ca2628"><tspan x="591.16" y="144.15">Not vaccinated</tspan></text></g><g class="legendMark"><rect x="586.16" y="506.65000000000003" width="248.84" height="28.1" fill="#fff" opacity="0"></rect><text font-size="13.50" x="591.2" y="517.5" fill="#3360a9"><tspan x="591.16" y="517.45">Number of confirmed tetanus cases</tspan><tspan x="591.16" y="532.3000000000001">(WHO 2017)</tspan></text></g></g><g class="Lines"><rect x="98" y="80" width="489" height="441" fill="rgba(255,255,255,0)" opacity="0"></rect><g class="key-World_0"><path stroke="#ca2628" stroke-linecap="round" d="M98 100L112 100L126 101L140 106L153 109L167 111L181 113L195 115L209 121L223 124L237 133L251 127L265 125L279 124L293 127L307 127L321 125L335 123L349 124L363 124L377 123L391 124L405 124L419 126L433 127L447 129L461 130L475 132L488 135L502 138L516 140L530 139L544 139L558 139L572 138L586 140" fill="none" stroke-width="1.5"></path><g fill="#ca2628"><circle cx="98" cy="100" r="2"></circle><circle cx="112" cy="100" r="2"></circle><circle cx="126" cy="101" r="2"></circle><circle cx="140" cy="106" r="2"></circle><circle cx="153" cy="109" r="2"></circle><circle cx="167" cy="111" r="2"></circle><circle cx="181" cy="113" r="2"></circle><circle cx="195" cy="115" r="2"></circle><circle cx="209" cy="121" r="2"></circle><circle cx="223" cy="124" r="2"></circle><circle cx="237" cy="133" r="2"></circle><circle cx="251" cy="127" r="2"></circle><circle cx="265" cy="125" r="2"></circle><circle cx="279" cy="124" r="2"></circle><circle cx="293" cy="127" r="2"></circle><circle cx="307" cy="127" r="2"></circle><circle cx="321" cy="125" r="2"></circle><circle cx="335" cy="123" r="2"></circle><circle cx="349" cy="124" r="2"></circle><circle cx="363" cy="124" r="2"></circle><circle cx="377" cy="123" r="2"></circle><circle cx="391" cy="124" r="2"></circle><circle cx="405" cy="124" r="2"></circle><circle cx="419" cy="126" r="2"></circle><circle cx="433" cy="127" r="2"></circle><circle cx="447" cy="129" r="2"></circle><circle cx="461" cy="130" r="2"></circle><circle cx="475" cy="132" r="2"></circle><circle cx="488" cy="135" r="2"></circle><circle cx="502" cy="138" r="2"></circle><circle cx="516" cy="140" r="2"></circle><circle cx="530" cy="139" r="2"></circle><circle cx="544" cy="139" r="2"></circle><circle cx="558" cy="139" r="2"></circle><circle cx="572" cy="138" r="2"></circle><circle cx="586" cy="140" r="2"></circle></g></g><g class="key-World_1"><path stroke="#34983f" stroke-linecap="round" d="M98 143L112 138L126 135L140 121L153 116L167 112L181 110L195 107L209 102L223 99L237 95L251 96L265 97L279 96L293 94L307 94L321 94L335 94L349 93L363 92L377 92L391 91L405 91L419 89L433 89L447 87L461 87L475 86L488 84L502 83L516 82L530 82L544 82L558 81L572 81L586 80" fill="none" stroke-width="1.5"></path><g fill="#34983f"><circle cx="98" cy="143" r="2"></circle><circle cx="112" cy="138" r="2"></circle><circle cx="126" cy="135" r="2"></circle><circle cx="140" cy="121" r="2"></circle><circle cx="153" cy="116" r="2"></circle><circle cx="167" cy="112" r="2"></circle><circle cx="181" cy="110" r="2"></circle><circle cx="195" cy="107" r="2"></circle><circle cx="209" cy="102" r="2"></circle><circle cx="223" cy="99" r="2"></circle><circle cx="237" cy="95" r="2"></circle><circle cx="251" cy="96" r="2"></circle><circle cx="265" cy="97" r="2"></circle><circle cx="279" cy="96" r="2"></circle><circle cx="293" cy="94" r="2"></circle><circle cx="307" cy="94" r="2"></circle><circle cx="321" cy="94" r="2"></circle><circle cx="335" cy="94" r="2"></circle><circle cx="349" cy="93" r="2"></circle><circle cx="363" cy="92" r="2"></circle><circle cx="377" cy="92" r="2"></circle><circle cx="391" cy="91" r="2"></circle><circle cx="405" cy="91" r="2"></circle><circle cx="419" cy="89" r="2"></circle><circle cx="433" cy="89" r="2"></circle><circle cx="447" cy="87" r="2"></circle><circle cx="461" cy="87" r="2"></circle><circle cx="475" cy="86" r="2"></circle><circle cx="488" cy="84" r="2"></circle><circle cx="502" cy="83" r="2"></circle><circle cx="516" cy="82" r="2"></circle><circle cx="530" cy="82" r="2"></circle><circle cx="544" cy="82" r="2"></circle><circle cx="558" cy="81" r="2"></circle><circle cx="572" cy="81" r="2"></circle><circle cx="586" cy="80" r="2"></circle></g></g><g class="key-World_2"><path stroke="#3360a9" stroke-linecap="round" d="M98 441L112 444L126 441L140 446L153 449L167 444L181 451L195 455L209 456L223 454L237 460L251 471L265 476L279 474L293 470L307 513L321 514L335 494L349 498L363 506L377 493L391 498L405 484L419 510L433 511L447 507L461 508L475 498L488 507L502 516L516 518L530 514L544 520L558 512L572 514L586 521" fill="none" stroke-width="1.5"></path><g fill="#3360a9"><circle cx="98" cy="441" r="2"></circle><circle cx="112" cy="444" r="2"></circle><circle cx="126" cy="441" r="2"></circle><circle cx="140" cy="446" r="2"></circle><circle cx="153" cy="449" r="2"></circle><circle cx="167" cy="444" r="2"></circle><circle cx="181" cy="451" r="2"></circle><circle cx="195" cy="455" r="2"></circle><circle cx="209" cy="456" r="2"></circle><circle cx="223" cy="454" r="2"></circle><circle cx="237" cy="460" r="2"></circle><circle cx="251" cy="471" r="2"></circle><circle cx="265" cy="476" r="2"></circle><circle cx="279" cy="474" r="2"></circle><circle cx="293" cy="470" r="2"></circle><circle cx="307" cy="513" r="2"></circle><circle cx="321" cy="514" r="2"></circle><circle cx="335" cy="494" r="2"></circle><circle cx="349" cy="498" r="2"></circle><circle cx="363" cy="506" r="2"></circle><circle cx="377" cy="493" r="2"></circle><circle cx="391" cy="498" r="2"></circle><circle cx="405" cy="484" r="2"></circle><circle cx="419" cy="510" r="2"></circle><circle cx="433" cy="511" r="2"></circle><circle cx="447" cy="507" r="2"></circle><circle cx="461" cy="508" r="2"></circle><circle cx="475" cy="498" r="2"></circle><circle cx="488" cy="507" r="2"></circle><circle cx="502" cy="516" r="2"></circle><circle cx="516" cy="518" r="2"></circle><circle cx="530" cy="514" r="2"></circle><circle cx="544" cy="520" r="2"></circle><circle cx="558" cy="512" r="2"></circle><circle cx="572" cy="514" r="2"></circle><circle cx="586" cy="521" r="2"></circle></g></g></g></g></g><g style="fill: #777;" class="SourcesFooter"><g style="fill: #777;" class="clickable"><text font-size="12.60" x="15.0" y="567.0"><tspan x="15" y="566.98">Source: DTP3 Coverage global - OWID based on WHO (2016), Global Health Observatory Data Repository (2017)</tspan></text></g><text font-size="12.60" x="15.0" y="582.5"><tspan x="15" y="582.48"><a target='_blank' style='fill: #777;' href='https://ourworldindata.org/vaccination/'>OurWorldInData.org/vaccination/</a> • <a style="fill: #777;" class="cclogo" href="http://creativecommons.org/licenses/by-sa/4.0/deed.en_US" target="_blank">CC BY-SA</a></tspan></text></g></g></svg>
